X:64
T:QUADRILLE DE PORNIC
Z: Yves BELOTTEAU
M:4/4
L:1/8
Q:1/4=120
K:G
|:BAGF/2G/2 AcBG|BAGG BAG3/2 z/2:|
G/2A/2B/2c3/2B/2c/2 B<AG/2F/2E/2E|D/2G/2F/2E/2ED/2G/2 A/2B/2c3/2B/2c/2B/
2|A3/2G/2F/2E/2D G/2BA/2G3/2 z/2 |ceg3/2 z/2 c'3/2 z/2 g3/2 z/2 |
c'c'bg a3/2 z/2 g3/2 z/2 |ceg3/2 z/2 c'3/2 z/2 g3/2 z/2 |c'c'bg a3/2 z/2
 g3/2 z/2 |ceg3/2 z/2 a3/2 z/2 g3/2 z/2 |
g3/2=f/2e=f ddc3/2 z/2 |g3/2=f/2e=f d3/2 z/2 c3/2 z/2 
|:ddee B/2c/2dc/2B/2A|ddee c/2B/2B3/2 z/2 |A3/2 z/2:| 
|GGBd dddd|c/2d/2edc de3/2 z/2 d3/2 z/2 |GGBd dddd|c/2d/2edc de3/2 z/2 |
d3/2 z/2 de f3/2 z/2 gf|e3/2 z/2 fe d^c/2d/2ed|^c3/2 z/2 B3/2 z/2 def3/2
 z/2 |gfe3/2 z/2 fed^c/2d/2|
ed^c3/2 z/2 B3/2 z/2 GG|GAGA B=c3/2 z/2 d|edc/2B/2A BA3/2 z/2 G3/2 z/2 |
GGGA GAB|
c3/2 z/2 de dc/2B/2AB|A3/2 z/2 G3/2 z/2 cde3/2 z/2 |=fed3/2 z/2 cB/2A/2G
c|edc3/2 z/2 cde3/2 z/2 |
=fed3/2 z/2 cB/2A/2Gc|edc3/2 z/2 eccc|B/2c/2ddd eccc|B/2c/2d3/2 z/2 c3/2
 z/2 ecc|
cB/2c/2dd decc|cB/2c/2d3/2 z/2 c3/2 z/2 cd|edc/2B/2A Gc3/2 z/2 d|edc/2B/
2A Gccd|
edc/2B/2A Gc3/2 z/2 d|edc/2B/2A Gcec|ccB/2c/2d dde/2d/2c|ccB/2c/2d dd3/2
 z/2 e|
cccB/2c/2 ddde/2d/2|cccB/2c/2 ddd3/2 z/2 |c/2c/2ded c/2B/2AGc3/2 z/2 |de
dB AGcc/2c/2|
dedc/2B/2 AGc3/2 z/2 |dedB AGc|
